X:689
%%etbk:tnset id:426,pos:1,rep:3x,ant:
%%etbk:wsite https://thesession.org/tunes/1556
%%etbk:video src:ytube,cde:8blbyNHgpO8,desc:
%%etbk:pldat 2016-09-15T18:48,2016-09-11T16:58,2016-09-10T15:18,2016-09-09T18:59,2016-09-08T17:57,2016-09-07T17:32,2016-09-06T16:32,2016-09-04T11:32,2016-09-03T10:29,2016-08-21T12:08,2016-08-12T17:24,2016-08-06T13:24,2016-08-04T19:25,2016-08-02T16:26,2016-07-31T17:37,2016-07-28T18:46,2016-07-26T16:43,2016-01-03T14:07,2016-01-01T16:25,2015-12-16T18:31,2015-12-14T18:46,2015-06-10T18:28,2015-06-09T17:41,2015-06-08T19:00,2015-05-19T18:09,2015-05-15T16:43,2015-05-10T14:32,2015-05-06T18:36,2015-05-05T15:45,2015-04-27T19:04,2015-04-25T16:52,2015-04-22T17:36,2015-04-11T11:52
T: Glen Highland, The
Z: Piano Box Version by Martin Fleischmann
H: Created 2015-04-10 /  Last Modified 2016-09-04
R: highland
M: 4/4
L: 1/8
K: Amix
"pipe version"A2 eA (3Bcd e!3!f|!5!g2 dG d<g dB|A2 eA cd ef|[1!4!(3gfe (3dcB  (3cde (3dcB :|[2 (3gfe (3dcB (3cBA !2!c!3!e||
!5!a2 !3!e!1!d !2!c<!1!A !3!e!4!f|!5!g2 !3!dG B<G d!5!g|!4!ga !2!e!1!d !2!c<!1!A !2!e!3!f| !4!(3gfe (3dcB (3cBA ce|
a2 ed c<A ef|g2 dG Bd !5!g!4!a|!5!(3bag !4!(3agf !4!(3gfe (3fga|!4!(3gfe (3d!3!cB (3cde (3dcB||
|:"version on session"A2 eA (3Bcd ef| !4!g2  !2!dg  !1!Bg d!1!B|!1!A2 !4!eA (3Bcd ef|[1 !4!(3gfe (3dcB (3cde (3dcB |2 !4!gfgB B2 A2||
|: !5!a2 !3!ea  !2!c!1!d  !2!ef| !4!g2  !2!dg  !1!Bg dg|[1a2 ea cd ef| !4!gfgB B2 A2|[2 !3!b!1!g!5!a!3!f  !4!gfed|  !4!(3gfe (3dcB (3cde (3dcB||


